static/images/hero/rev-dot.svg

<svg width="15" height="14" viewBox="0 0 15 14" fill="none" xmlns="http://www.w3.org/2000/svg">
<circle cx="7.68286" cy="6.62979" r="5" fill="#0BA6E2"/>
<path d="M1.46974 12.4303C1.24843 12.196 1.09697 11.925 0.934779 11.5779C0.934661 11.5777 0.934544 11.5776 0.934424 11.5774C0.911345 11.5278 0.888231 11.4763 0.864651 11.4232C0.677929 10.9943 0.445294 10.4429 0.175636 9.60961C-0.120283 8.67919 0.00734735 7.87289 0.195523 7.42239C0.231029 7.33706 0.245423 7.25286 0.255124 7.04222C0.260432 6.93716 0.265047 6.8054 0.277506 6.62979C0.281396 6.57551 0.286098 6.51727 0.292007 6.45476C0.30534 6.31445 0.324479 6.15044 0.355989 5.96103C0.452117 5.33397 0.649994 4.35088 1.03732 3.51475C1.26529 3.00641 1.54563 2.55442 1.79129 2.23803C2.15052 1.77455 2.57317 1.39045 3.07007 1.04108C3.52629 0.722398 4.0462 0.430705 4.67335 0.166957C5.15661 -0.0355558 5.70286 -0.0302958 6.21916 0.0586884C6.28516 0.069914 6.35113 0.0823171 6.41611 0.095928C6.85125 0.186305 7.26627 0.321122 7.68286 0.426216C7.69821 0.430067 7.71355 0.433882 7.72891 0.437656C8.49519 0.633661 9.08384 0.674298 9.76302 0.821297C10.0264 0.880581 10.2984 0.959455 10.5791 1.08301C11.0236 1.2751 11.6102 1.67195 12.0974 2.17298C12.1391 2.21539 12.1804 2.25828 12.2208 2.30179C12.221 2.30201 12.2212 2.30223 12.2214 2.30244C12.6587 2.7699 12.9996 3.29952 13.2295 3.69844C13.5904 4.33628 13.7205 4.59139 13.8499 4.7981C13.8963 4.87668 13.9384 4.95121 13.9781 5.04298C14.1231 5.37379 14.2074 5.91584 14.208 6.46031C14.208 6.46239 14.2081 6.46447 14.2081 6.46654C14.2086 6.55787 14.0106 6.63112 13.7688 6.62979C13.5268 6.62846 13.3322 6.56428 13.3321 6.48679C13.3318 6.23722 13.3138 5.99103 13.2769 5.77548C13.0696 5.79483 12.9059 5.76423 12.896 5.69935C12.8696 5.54127 12.6281 5.03852 12.0753 4.48687C12.0634 4.54872 12.0475 4.60184 12.0306 4.64919C12.0107 4.70474 11.9911 4.7482 11.9741 4.78524C11.9384 4.86238 11.9138 4.912 11.9091 4.98384C11.9318 5.13676 12.001 5.36065 12.0498 5.60272C12.0624 5.66466 11.8793 5.75417 11.6423 5.80216C11.4053 5.85016 11.2064 5.84972 11.1968 5.80159C11.1966 5.80064 11.1964 5.79969 11.1961 5.79874C11.1585 5.60579 11.1025 5.42013 11.0901 5.2886C11.0871 5.25511 11.0868 5.22508 11.088 5.20176C11.089 5.18314 11.0907 5.15935 11.099 5.14287C11.1001 5.14068 11.1024 5.13641 11.1063 5.1308C11.1064 5.13069 11.1065 5.13057 11.1066 5.13046C11.1088 5.12733 11.1197 5.11147 11.1476 5.0869C11.1533 5.08193 11.166 5.07097 11.1872 5.05513C11.1885 5.05297 11.1897 5.05081 11.1909 5.04865C11.2077 5.01854 11.2244 4.9875 11.2393 4.95486C11.2958 4.82756 11.3595 4.63385 11.3026 4.28003C11.25 3.95798 10.9703 3.47742 10.4426 3.06706C10.467 3.10893 10.491 3.15061 10.5146 3.19191C10.574 3.29587 10.631 3.39848 10.6846 3.50097C10.7051 3.54019 10.7247 3.57896 10.7444 3.61827C10.7759 3.68161 10.806 3.74519 10.8347 3.8087C10.854 3.85162 10.8728 3.8946 10.8906 3.93771C10.8907 3.93779 10.8908 3.93787 10.8908 3.93794C10.9156 3.9978 10.9387 4.05799 10.9602 4.11908C10.9673 4.14073 10.9743 4.16203 10.9812 4.18307C11.0083 4.26673 11.0331 4.34953 11.039 4.45544C11.0377 4.46958 11.0348 4.48589 11.0317 4.49854C11.0285 4.51204 11.0249 4.52529 11.0209 4.53816C11.0173 4.54952 11.0133 4.56062 11.0097 4.5711C11.0092 4.5725 11.0087 4.5739 11.0083 4.57529C11.0042 4.58702 11.0005 4.59802 10.9971 4.6085C10.9937 4.61897 10.9903 4.62901 10.9878 4.63838C10.9878 4.63844 10.9878 4.63849 10.9879 4.63854C10.9853 4.64826 10.9834 4.6556 10.9819 4.66513C10.98 4.67708 10.9789 4.68697 10.9787 4.69826C10.9784 4.70921 10.9789 4.72016 10.9799 4.73086C10.9809 4.74156 10.9824 4.75212 10.9843 4.76263C10.9861 4.77315 10.9883 4.78369 10.9907 4.79412C10.9931 4.80454 10.9959 4.8149 10.9986 4.82533C11.0014 4.83578 11.0041 4.84627 11.0069 4.85678C11.0133 4.88102 10.9811 4.92438 10.9153 4.97666C10.8496 5.02902 10.7561 5.08577 10.6553 5.13641C10.5545 5.18705 10.4539 5.22829 10.3752 5.25306C10.2966 5.27773 10.2466 5.28378 10.2342 5.26927C10.2308 5.26531 10.2273 5.2614 10.2239 5.2574C10.2219 5.25503 10.22 5.25254 10.218 5.25015C10.2127 5.24369 10.207 5.23729 10.2019 5.23058C10.1967 5.22388 10.1919 5.21694 10.1872 5.20979C10.1826 5.20261 10.1781 5.19519 10.1743 5.18726C10.1704 5.17934 10.1672 5.17089 10.1647 5.16174C10.1623 5.15286 10.1607 5.14199 10.1605 5.13145C10.1602 5.12383 10.1613 5.11348 10.1626 5.10461C10.1639 5.09534 10.1659 5.08578 10.1681 5.07626C10.1704 5.06672 10.1731 5.05711 10.1755 5.04797C10.1757 5.04701 10.176 5.04605 10.1762 5.04509C10.1783 5.037 10.1804 5.02913 10.1821 5.02187C10.184 5.01375 10.1852 5.00636 10.186 4.99959C10.1869 4.99208 10.1866 4.98808 10.186 4.98327C10.1663 4.92774 10.1229 4.87086 10.0799 4.8186C10.0745 4.81201 10.0692 4.80543 10.0638 4.79898C10.0351 4.765 10.0052 4.73213 9.97465 4.69995C9.95245 4.67658 9.92982 4.65359 9.90703 4.63079C9.87346 4.59723 9.83942 4.56405 9.80504 4.53138C9.78372 4.51105 9.76272 4.49121 9.74128 4.47116C9.68523 4.41884 9.6285 4.36713 9.57212 4.3143C9.51585 4.26154 9.45956 4.20753 9.40433 4.15012C9.34929 4.09287 9.2935 4.02958 9.24248 3.95888C9.20524 3.90651 9.17397 3.83704 9.14415 3.76853C9.12818 3.73167 9.11199 3.69479 9.09551 3.65823C9.09548 3.65806 9.09544 3.65788 9.09541 3.65771C9.08094 3.62562 9.06602 3.59393 9.05017 3.56342C9.01622 3.49779 8.97862 3.43763 8.93633 3.38415C8.89403 3.33066 8.84786 3.28411 8.79739 3.24466C8.74715 3.20551 8.6931 3.17301 8.6367 3.14771C8.57986 3.12223 8.52247 3.10406 8.46023 3.09076C8.3783 3.07376 8.29547 3.06661 8.2101 3.06349C8.12572 3.06072 8.03975 3.06317 7.95478 3.06885C7.92498 3.07084 7.89508 3.07288 7.86518 3.07566C7.86507 3.07566 7.86495 3.07565 7.86484 3.07565C7.81003 3.08082 7.75504 3.08727 7.69995 3.09465C7.69426 3.09541 7.68856 3.09618 7.68286 3.09696C7.60327 3.10788 7.52606 3.12073 7.4479 3.13435C7.36466 3.14889 7.28194 3.16442 7.19901 3.17859C7.1162 3.1925 7.03109 3.20588 6.94322 3.21024C6.86467 3.21456 6.78478 3.21769 6.70579 3.22341C6.68498 3.22492 6.66417 3.22662 6.64336 3.2285C6.54438 3.23781 6.44928 3.25434 6.36042 3.28634C6.27185 3.31786 6.18867 3.36455 6.11245 3.4232C6.03628 3.48173 5.96636 3.55191 5.90314 3.62938C5.83961 3.70722 5.78416 3.79075 5.73425 3.87946C5.68491 3.96759 5.64193 4.05963 5.60533 4.1546C5.58487 4.20733 5.5624 4.26048 5.54107 4.30917C5.5195 4.35832 5.49798 4.40561 5.47724 4.45171C5.46883 4.47043 5.46046 4.48887 5.45247 4.50732C5.44082 4.53423 5.4296 4.56085 5.41947 4.58752C5.40237 4.63251 5.38813 4.67762 5.37841 4.72375C5.36872 4.76983 5.36381 4.8171 5.3655 4.86625C5.36741 4.91719 5.37505 4.96249 5.39196 5.02012C5.41435 5.1463 5.41038 5.20553 5.40652 5.27257C5.40585 5.2857 5.4055 5.29922 5.40532 5.31331C5.40045 5.39171 5.39186 5.46435 5.38086 5.53329C5.36971 5.60266 5.3562 5.66807 5.33983 5.73249C5.32363 5.79636 5.30444 5.85885 5.28294 5.92057C5.26144 5.98232 5.23742 6.04329 5.21042 6.10536C5.18354 6.16704 5.15309 6.23125 5.12138 6.29409C5.10306 6.33053 5.0808 6.36987 5.05921 6.40699C5.04364 6.43383 5.02783 6.46083 5.01267 6.4879C5.00649 6.49888 5.0004 6.50981 4.9945 6.52078C4.97492 6.55716 4.95737 6.59368 4.94428 6.62979C4.94378 6.63116 4.94329 6.63253 4.94281 6.6339C4.92954 6.67131 4.92098 6.70775 4.91898 6.74306C4.91695 6.77825 4.92154 6.81316 4.93272 6.84669C4.94466 6.8815 4.95965 6.90942 4.98621 6.94397C5.00373 6.96633 5.02157 6.98766 5.03965 7.00843C5.0667 7.03937 5.09479 7.06952 5.12419 7.09833C5.15358 7.12713 5.18384 7.15427 5.21564 7.18046C5.22586 7.18885 5.23669 7.19759 5.24725 7.2057C5.27986 7.23073 5.31349 7.25408 5.34892 7.27594C5.38428 7.29771 5.42101 7.31751 5.45967 7.33552C5.4985 7.35362 5.53857 7.36954 5.58142 7.38361C5.65442 7.40743 5.69648 7.43675 5.72867 7.46402C5.76084 7.49178 5.78493 7.51923 5.80888 7.54556C5.81336 7.55049 5.81787 7.55539 5.82239 7.56026C5.84166 7.58135 5.86067 7.60167 5.8812 7.62051C5.90646 7.64373 5.93367 7.66457 5.96337 7.68329C5.99277 7.70189 6.02484 7.71836 6.05931 7.73154C6.09417 7.74481 6.12974 7.75492 6.17065 7.76226C6.21096 7.76967 6.25804 7.77088 6.30867 7.77009C6.35891 7.7693 6.41024 7.76678 6.45736 7.76586C6.50457 7.76487 6.54789 7.76544 6.58611 7.76898C6.62447 7.77248 6.65844 7.77872 6.6885 7.78774C6.71876 7.79679 6.74535 7.80869 6.76967 7.82298C6.79395 7.83724 6.8167 7.85448 6.83655 7.87314C6.86862 7.90332 6.90043 7.93444 6.93337 7.96522C6.96609 7.99592 6.99992 8.02651 7.03492 8.05628C7.06995 8.08606 7.10631 8.11497 7.1442 8.14297C7.18206 8.17095 7.22146 8.19782 7.26268 8.22325C7.27182 8.22888 7.28092 8.2344 7.29019 8.23986C7.32282 8.2591 7.35656 8.27737 7.39128 8.29426C7.3915 8.29445 7.39173 8.29463 7.39196 8.29482C7.4368 8.3164 7.48259 8.33573 7.53064 8.35125C7.54829 8.35684 7.56553 8.36189 7.58334 8.36607C7.60115 8.37024 7.61863 8.37353 7.63664 8.37589C7.652 8.3779 7.66746 8.37911 7.68286 8.37939C7.68552 8.37943 7.68816 8.37945 7.6908 8.37945C7.70893 8.37933 7.72644 8.37801 7.74383 8.37461C7.75979 8.3716 7.77527 8.36645 7.79225 8.3608C7.79379 8.36027 7.79533 8.35975 7.79687 8.35923C7.81532 8.35297 7.83605 8.34809 7.85566 8.34852C7.90806 8.35036 7.95832 8.34649 8.00834 8.3368C8.05828 8.32713 8.10666 8.31193 8.15406 8.29307C8.17255 8.28573 8.19066 8.27766 8.20888 8.26944C8.2372 8.25667 8.26488 8.24321 8.29282 8.2296C8.33858 8.20722 8.38419 8.18513 8.43151 8.16506C8.47871 8.14504 8.52779 8.12717 8.57962 8.1116C8.63145 8.09596 8.68658 8.08214 8.74465 8.06947C8.80942 8.05544 8.8762 8.03972 8.94437 8.02028C9.01249 8.00092 9.08188 7.97813 9.15148 7.95142C9.22126 7.92456 9.29136 7.89376 9.36138 7.85866C9.43143 7.82355 9.50134 7.78416 9.57058 7.74024C9.61202 7.71399 9.65336 7.68612 9.69423 7.65662C9.68677 7.6261 9.67864 7.59698 9.6705 7.56958C9.60907 7.36728 9.54461 7.23946 9.5093 7.09784C9.50201 7.08339 9.48966 7.07017 9.4746 7.05446C9.47173 7.05147 9.46887 7.04835 9.4658 7.04514C9.44634 7.02487 9.42609 7.00256 9.41541 6.97631C9.39417 6.92191 9.41215 6.86338 9.62389 6.77483C9.6773 6.75276 9.91116 6.74514 10.1468 6.76417C10.312 6.77782 10.4339 6.80469 10.473 6.83255C10.5043 6.78867 10.5359 6.74384 10.5661 6.69727C10.5783 6.67872 10.6328 6.66173 10.7194 6.6489C10.8059 6.63616 10.917 6.62869 11.0296 6.62993C11.1423 6.63116 11.248 6.64147 11.3247 6.66C11.4014 6.67842 11.4427 6.70345 11.4403 6.72794C11.4336 6.7927 11.4252 6.85692 11.4167 6.92095C11.4082 6.98481 11.3996 7.04825 11.3904 7.11175C11.3811 7.17501 11.3715 7.2383 11.361 7.30162C11.3506 7.36452 11.3392 7.42765 11.3269 7.49067C11.3146 7.55391 11.3017 7.6163 11.2872 7.67921C11.2785 7.71691 11.269 7.75484 11.2595 7.79233C11.2559 7.80626 11.2526 7.81993 11.249 7.83351C11.2461 7.84461 11.243 7.8557 11.2398 7.86713C11.207 7.98768 11.1684 8.10858 11.1247 8.22712C11.0808 8.34613 11.0312 8.46367 10.976 8.57928C10.9208 8.69495 10.8601 8.80875 10.7936 8.91994C10.727 9.03111 10.655 9.13969 10.5775 9.24549C10.5003 9.35099 10.4173 9.45371 10.3298 9.55316C10.2622 9.63006 10.1924 9.70475 10.12 9.7777C10.1021 9.82018 10.0828 9.86135 10.0628 9.90143C10.0044 10.0181 9.94932 10.1492 9.88641 10.2782C10.0498 10.1337 10.1524 9.98421 10.2401 9.84084C10.2518 9.82158 10.2632 9.80233 10.2745 9.78323C10.3898 9.58709 10.4884 9.40603 10.675 9.21391C11.2013 8.65537 11.3822 8.22847 11.5338 7.9855C11.6793 7.73544 11.7841 7.63399 11.9731 7.54975C12.2412 7.4331 12.4227 7.08569 12.4345 6.90251C12.44 6.8373 12.639 6.79053 12.8808 6.79751C13.1226 6.80471 13.3156 6.87409 13.3093 6.95325C13.2959 7.18101 13.097 7.6323 12.7659 7.80499C12.6188 7.88227 12.5189 7.98338 12.3555 8.28636C12.1843 8.58088 11.9727 9.10041 11.3364 9.7888C11.1189 10.0169 10.9935 10.22 10.8461 10.4433C10.8316 10.4651 10.817 10.4872 10.8019 10.5092C10.8018 10.5093 10.8017 10.5094 10.8015 10.5095C10.6622 10.7118 10.4929 10.9317 10.1961 11.138C9.52841 11.6404 8.40677 12.0042 8.12763 12.0912C8.07418 12.1125 8.022 12.135 7.96616 12.1578C7.8854 12.191 7.79667 12.2255 7.68286 12.2567C7.49783 12.3063 7.24905 12.3525 6.86443 12.3375C6.72892 12.3318 6.57138 12.3124 6.401 12.2775C6.12194 12.3356 5.83764 12.3638 5.59879 12.3456C5.39237 12.3299 5.18153 12.3527 4.96502 12.3752C4.90289 12.3818 4.83895 12.3884 4.77495 12.394C4.62061 12.4075 4.46323 12.4148 4.31661 12.4023C4.19992 12.3924 4.07263 12.3852 3.93705 12.3731C3.44844 12.3309 2.8148 12.2075 2.3039 11.6709C1.76817 11.1041 1.44211 10.5082 1.22398 9.98267C1.36667 10.3793 1.48829 10.6898 1.59769 10.9495C1.61839 10.9984 1.63867 11.0452 1.65864 11.0902C1.80052 11.4075 1.92379 11.6354 2.10828 11.8308C3.01114 12.7452 3.51138 12.9112 4.06173 12.9971C4.20957 13.0163 4.37757 13.0208 4.55621 13.0182C4.9136 13.0131 5.30732 12.9755 5.68737 12.9836C6.04223 12.9919 6.44183 12.9356 6.83791 12.8333C6.83806 12.8334 6.83821 12.8334 6.83836 12.8334C6.91565 12.8135 6.99346 12.792 7.07058 12.7689C7.2784 12.7067 7.48348 12.6341 7.68286 12.5575C7.9336 12.4611 8.17211 12.3585 8.40088 12.2635C8.44477 12.2453 8.49637 12.2207 8.55496 12.1913C8.90136 12.0194 9.42868 11.7014 10.1438 11.4829C10.3027 11.4341 10.4819 11.4035 10.6881 11.3545C10.7509 11.3395 10.8161 11.3231 10.8838 11.3034C11.1742 11.2184 11.5264 11.0791 11.9127 10.7737C12.2308 10.5221 12.5661 10.1495 12.853 9.71702C12.9948 9.50435 13.1259 9.2779 13.2437 9.04761C13.5983 8.35177 13.83 7.64943 13.9417 6.91825C13.9417 6.91811 13.9417 6.91796 13.9417 6.91781C13.9547 6.83282 14.1596 6.76868 14.4013 6.77624C14.6428 6.78379 14.8299 6.87122 14.8161 6.96991C14.6982 7.80319 14.4432 8.60666 14.0441 9.4033C13.9132 9.66379 13.7659 9.92212 13.6057 10.1657C13.2787 10.6656 12.892 11.1004 12.5284 11.3961C12.0836 11.7579 11.6802 11.9312 11.3482 12.0412C11.268 12.0675 11.1919 12.0898 11.1196 12.1098C10.8894 12.1732 10.6985 12.2128 10.5252 12.2701C9.72733 12.5325 9.12712 12.8628 8.72598 13.0458C8.65558 13.078 8.59404 13.1047 8.54027 13.1252C8.26669 13.2294 7.98194 13.34 7.68286 13.4413C7.47206 13.5127 7.25642 13.5795 7.03667 13.6365C6.95109 13.659 6.86331 13.6796 6.77639 13.6987C6.7762 13.6989 6.77602 13.699 6.77583 13.6991C6.32876 13.7979 5.87301 13.8471 5.46758 13.8271C5.05671 13.8071 4.66511 13.8307 4.28672 13.8259C4.08405 13.8232 3.88646 13.8122 3.69672 13.7821C3.0553 13.6635 2.47781 13.4535 1.46974 12.4303ZM10.4251 6.89884C10.3069 6.98006 10.2733 7.04347 10.2712 7.09772C10.3037 7.05759 10.3364 7.01635 10.3691 6.97353C10.3877 6.94918 10.4064 6.92404 10.4251 6.89884ZM6.57445 11.4191C6.6036 11.4112 6.63281 11.4029 6.66198 11.3943C6.58833 11.3856 6.51526 11.3749 6.44225 11.3624C6.35225 11.347 6.26338 11.3288 6.1743 11.3079C6.31102 11.355 6.44686 11.3927 6.57445 11.4191ZM2.94215 11.0704C3.36715 11.5159 3.89841 11.6 4.33869 11.6193C4.46664 11.6252 4.58942 11.6267 4.70539 11.6311C4.75349 11.6329 4.80262 11.632 4.85254 11.6292C4.64641 11.4966 4.46762 11.3599 4.32706 11.2426C3.9089 10.8887 3.74801 10.6098 3.61561 10.3735C3.57776 10.3044 3.54297 10.2376 3.5073 10.1704C3.44509 10.1426 3.38171 10.1113 3.321 10.0758C3.23571 10.0264 3.14772 9.96715 3.06805 9.90595C2.98795 9.84457 2.91071 9.77742 2.83945 9.7071C2.76753 9.63613 2.70089 9.56177 2.63834 9.48449C2.57937 9.41172 2.52439 9.33657 2.47266 9.26226C2.4697 9.258 2.46676 9.25374 2.46381 9.24947C2.40916 9.17066 2.35825 9.0927 2.30729 9.02189C2.25523 8.9498 2.20759 8.89122 2.1533 8.84312C2.08564 8.78302 2.01945 8.71758 1.95763 8.65081C1.89565 8.58382 1.83717 8.51394 1.78223 8.44216C1.72723 8.37041 1.67569 8.29692 1.62697 8.22104C1.6112 8.19643 1.59509 8.1708 1.5801 8.14618C1.5732 8.13485 1.56622 8.1235 1.55945 8.11211C1.59598 8.27628 1.63903 8.44587 1.68933 8.62033C1.76178 8.87135 1.8384 9.14306 1.947 9.43639C2.13251 9.93442 2.4136 10.5103 2.94215 11.0704ZM1.39314 5.57174C1.38314 5.64562 1.37321 5.75301 1.36588 5.89272C1.36417 5.92569 1.36286 5.96081 1.36155 5.99707C1.36185 5.99625 1.36194 5.99538 1.36223 5.99455C1.39342 5.90694 1.4227 5.82685 1.45296 5.74147C1.50689 5.58892 1.56108 5.44333 1.61692 5.29785C1.67293 5.15197 1.72995 5.00855 1.7883 4.86666C1.84674 4.7245 1.90636 4.58349 1.96662 4.44443C2.02734 4.30413 2.08861 4.16691 2.15036 4.02836C2.17001 3.98431 2.18983 3.93988 2.20964 3.89552C2.14134 3.98278 2.077 4.07704 2.01169 4.17977C1.95955 4.26181 1.90709 4.34834 1.85184 4.44106C1.83069 4.4766 1.8033 4.51875 1.77199 4.56876C1.64875 4.76589 1.45859 5.09414 1.39314 5.57174ZM2.66414 2.72518C2.68204 2.69276 2.70055 2.66097 2.71979 2.63022C2.77457 2.5427 2.83415 2.46155 2.89534 2.3844C2.93835 2.33023 2.98255 2.278 3.02675 2.22705C3.0454 2.20555 3.06409 2.1841 3.08279 2.16302C3.11412 2.12771 3.14532 2.09268 3.17663 2.05817C2.92588 2.26854 2.69816 2.4981 2.49233 2.76312C2.48962 2.76661 2.4871 2.77027 2.48438 2.7738C2.54568 2.75614 2.60564 2.73997 2.66414 2.72518Z" fill="#0BA6E2"/>
</svg>

<svg xmlns="http://www.w3.org/2000/svg" width="15" height="14" fill="none" viewBox="0 0 15 14"><circle cx="7.683" cy="6.63" r="5" fill="#0ba6e2"/><path fill="#0ba6e2" d="M1.47 12.43c-.222-.234-.373-.505-.535-.852l-.07-.155c-.187-.429-.42-.98-.69-1.813-.295-.93-.168-1.737.02-2.188.036-.085.05-.17.06-.38.005-.105.01-.237.023-.412a8 8 0 0 1 .078-.669c.096-.627.294-1.61.681-2.446a6.5 6.5 0 0 1 .754-1.277 5.8 5.8 0 0 1 1.28-1.197A8.6 8.6 0 0 1 4.672.167C5.157-.036 5.703-.03 6.22.059q.1.015.197.037c.435.09.85.225 1.267.33l.046.012c.766.196 1.355.236 2.034.383.263.06.535.138.816.262.445.192 1.031.589 1.518 1.09l.124.13c.438.467.779.997 1.008 1.395.361.638.492.893.62 1.1.047.079.09.153.13.245.144.33.228.873.229 1.417v.007c0 .09-.197.164-.44.163-.241-.002-.436-.066-.436-.143 0-.25-.018-.496-.055-.712-.207.02-.371-.01-.381-.076-.026-.158-.268-.66-.82-1.212a1 1 0 0 1-.045.162q-.03.083-.057.136c-.036.077-.06.127-.065.199.023.153.092.377.14.619.013.062-.17.151-.407.2-.237.047-.436.047-.445-.001v-.003c-.038-.193-.095-.379-.107-.51l-.002-.087a.2.2 0 0 1 .011-.06l.007-.011c.003-.004.014-.02.042-.044l.04-.032.003-.006q.025-.046.048-.094c.057-.127.12-.321.064-.675-.053-.322-.333-.803-.86-1.213a17 17 0 0 1 .242.434 8 8 0 0 1 .15.308 5 5 0 0 1 .125.31l.021.064c.027.084.052.167.058.272a.3.3 0 0 1-.018.083l-.011.033-.002.004-.01.034-.01.03a.2.2 0 0 0-.008.092.4.4 0 0 0 .01.063l.009.031.008.032c.006.024-.026.067-.092.12a2 2 0 0 1-.54.276c-.078.025-.128.03-.14.016l-.011-.012-.006-.007-.016-.02a.3.3 0 0 1-.028-.043.14.14 0 0 1-.013-.056l.002-.026.005-.029.008-.028v-.003l.006-.023.004-.022v-.017a.6.6 0 0 0-.106-.164l-.016-.02a2 2 0 0 0-.157-.168 6 6 0 0 0-.166-.16l-.169-.157a5 5 0 0 1-.168-.164 2 2 0 0 1-.162-.191 1 1 0 0 1-.098-.19l-.048-.11v-.001l-.046-.095a1 1 0 0 0-.114-.179.8.8 0 0 0-.3-.236 1 1 0 0 0-.176-.057 1.5 1.5 0 0 0-.25-.028 3 3 0 0 0-.345.013 4 4 0 0 0-.417.058l-.249.045a2 2 0 0 1-.256.031l-.237.013-.063.006a1.2 1.2 0 0 0-.283.057.9.9 0 0 0-.248.137 1.3 1.3 0 0 0-.209.206 2 2 0 0 0-.169.25q-.074.133-.129.276-.031.08-.064.154l-.064.143-.025.055-.033.08a1 1 0 0 0-.04.137.6.6 0 0 0 .013.296c.022.126.018.186.015.253l-.002.04a2.3 2.3 0 0 1-.195.792 4 4 0 0 1-.15.302l-.047.08-.018.034a1 1 0 0 0-.052.113.4.4 0 0 0-.024.11.3.3 0 0 0 .014.103.3.3 0 0 0 .053.097 1.6 1.6 0 0 0 .261.262 1.2 1.2 0 0 0 .213.13q.058.027.121.048a.4.4 0 0 1 .148.08q.046.042.08.082l.072.075a.57.57 0 0 0 .428.15l.148-.005q.071-.002.13.003.055.005.102.019a.4.4 0 0 1 .148.085l.096.092a3 3 0 0 0 .211.178 2 2 0 0 0 .247.151h.001a1 1 0 0 0 .191.072.5.5 0 0 0 .108.013.3.3 0 0 0 .106-.02.2.2 0 0 1 .059-.01.7.7 0 0 0 .298-.056 1 1 0 0 0 .139-.063q.068-.035.139-.065.07-.03.148-.053.077-.024.165-.043.096-.02.2-.049a2.4 2.4 0 0 0 .626-.28q.062-.04.123-.083L9.67 7.57c-.06-.203-.125-.33-.16-.472a.2.2 0 0 0-.035-.044l-.01-.009a.2.2 0 0 1-.05-.069c-.02-.054-.003-.113.209-.201.053-.022.287-.03.523-.01.165.013.287.04.326.068l.093-.136c.012-.018.067-.035.153-.048.087-.013.198-.02.31-.02a1.4 1.4 0 0 1 .296.031c.076.018.118.043.115.068l-.023.193a17 17 0 0 1-.056.38 7 7 0 0 1-.102.491l-.01.042-.01.033a4.3 4.3 0 0 1-.263.712 4.1 4.1 0 0 1-.646.974 5 5 0 0 1-.21.225 2 2 0 0 1-.057.123c-.059.117-.114.248-.177.377a1.8 1.8 0 0 0 .389-.495c.115-.196.213-.377.4-.57.526-.558.707-.985.859-1.227.145-.25.25-.352.44-.436.267-.117.449-.464.46-.647.006-.066.205-.112.447-.105s.435.076.428.155c-.013.228-.212.68-.543.852-.147.077-.247.178-.41.481-.172.295-.383.814-1.02 1.503-.217.228-.343.431-.49.654l-.044.066c-.14.203-.31.423-.606.629-.668.502-1.79.866-2.068.953l-.162.067c-.08.033-.17.068-.283.099-.185.05-.434.095-.819.08a3 3 0 0 1-.463-.06c-.28.059-.563.087-.802.069-.207-.016-.417.007-.634.03l-.19.018a3 3 0 0 1-.458.008l-.38-.029c-.489-.042-1.122-.165-1.633-.702a5.5 5.5 0 0 1-1.08-1.688 19 19 0 0 0 .435 1.107c.142.318.265.545.45.74.902.915 1.402 1.081 1.953 1.167.148.02.316.024.494.021.358-.005.751-.043 1.131-.034a4.3 4.3 0 0 0 1.151-.15q.117-.03.233-.065.311-.095.612-.212c.25-.096.49-.199.718-.293q.066-.028.154-.073c.346-.172.874-.49 1.589-.708.159-.049.338-.08.544-.129q.094-.02.196-.05c.29-.086.642-.225 1.029-.53a4.7 4.7 0 0 0 .94-1.057c.142-.213.273-.44.39-.67a7 7 0 0 0 .699-2.129c.013-.085.218-.15.46-.142.24.008.428.095.414.194a7.8 7.8 0 0 1-.772 2.433c-.13.26-.278.52-.438.763-.327.5-.714.934-1.078 1.23a3.6 3.6 0 0 1-1.18.645q-.12.04-.228.069c-.23.063-.421.103-.595.16-.798.263-1.398.593-1.799.776q-.105.048-.186.08c-.273.103-.558.214-.857.315a9 9 0 0 1-.907.258 5 5 0 0 1-1.308.128c-.411-.02-.803.004-1.181-.001a4 4 0 0 1-.59-.044c-.642-.118-1.22-.328-2.227-1.352m8.955-5.53c-.118.081-.152.144-.154.199a6 6 0 0 0 .154-.2m-3.85 4.52.087-.025a4 4 0 0 1-.488-.086q.207.071.4.111m-3.633-.349c.425.446.956.53 1.397.55l.366.011q.072.003.148-.002a5 5 0 0 1-.526-.386 2.8 2.8 0 0 1-.711-.87l-.109-.203a2 2 0 0 1-.186-.094 2.4 2.4 0 0 1-.482-.369 3 3 0 0 1-.2-.223 4 4 0 0 1-.166-.222l-.01-.013q-.08-.119-.156-.227a1 1 0 0 0-.154-.179 3 3 0 0 1-.37-.4 3 3 0 0 1-.203-.297l-.02-.034q.054.246.13.508c.072.251.148.523.257.816.186.498.467 1.074.995 1.634M1.393 5.572a4 4 0 0 0-.031.425v-.002l.091-.254a18 18 0 0 1 .335-.874q.088-.215.179-.423.09-.209.183-.416l.06-.132a4 4 0 0 0-.198.284q-.078.122-.16.261l-.08.128a2.5 2.5 0 0 0-.379 1.003m1.271-2.847.056-.095q.083-.13.175-.246a5 5 0 0 1 .188-.221l.094-.105c-.251.21-.479.44-.685.705l-.008.01z"/></svg>
